X:1
T:J'ai du bon tabac
C:Trad.
M:2/4
L:1/8
Q:1/4=120
P:SVG02.abc
K:C
CDEC | D2DE | F2F2 | E2E2 | CDEC | D2DE | F2G2 | C4 :|
G2GF | E2DE | F2G2 | F2E2 | G2GF | E2DE | F2G2 | D4 ||
CDEC | D2DE | F2F2 | E2E2 | CDEC | D2DE | F2G2 | C4 |]

